public-dev/logo.svg

<svg width="250" height="250" viewBox="0 0 250 250" fill="none" xmlns="http://www.w3.org/2000/svg">
<mask id="mask0_107_22" style="mask-type:alpha" maskUnits="userSpaceOnUse" x="4" y="1" width="240" height="234">
<path d="M244 123C244 187.617 205.617 235 141 235C76.3827 235 38 204.117 38 139.5C38 111.194 -8.72891 36.2357 8.00002 16C29.4601 -9.9586 88.6887 5.99994 125 5.99994C189.617 5.99994 244 58.3827 244 123Z" fill="#D9D9D9"/>
</mask>
<g mask="url(#mask0_107_22)">
<path d="M116.94 88.0994C103.596 89.6517 96.5039 86.0813 92.2336 98.8104C92.2336 98.8104 106.57 120.465 144.774 119.922C142.639 128.77 143.63 135.29 143.63 143.129C143.63 169.208 123.041 191.95 77.6687 191.95C54.6395 191.95 26.6536 196.141 5.30196 207.861C-9.87294 216.166 -21.746 228.197 -27 244.884L-21.0444 253.345L-9.64418 253.5V301.389L-23.5532 323.355L-19.5574 387H-6.36518L-5.22134 335.773C1.33666 331.892 16.3591 321.802 29.17 306.279C46.5564 285.4 59.9011 255.052 44.1924 217.486L55.9358 212.441C68.823 243.254 64.324 269.955 53.0381 291.454C74.6185 290.756 93.1486 289.359 108.857 286.72L105.273 243.022L117.932 241.935L129.98 387H143.096L145.308 292.541C155.755 288.039 179.547 271.507 190.68 214.071C192.052 207.085 192.815 201.186 193.196 196.141C194.95 183.335 195.941 168.898 196.247 152.443L177.564 146.467H234.984L240.551 133.66C235.137 133.893 228.655 131.021 228.655 131.021L229.952 124.812H242L176.801 90.4279C169.557 93.222 161.931 96.87 156.593 101.294C152.323 98.1895 137.53 88.4874 116.94 88.0994Z" fill="#91BA4D"/>
<path d="M6.21704 24.4927L18.4942 21C24.4422 42.5773 31.839 54.375 41.1422 60.3515C49.5303 65.4509 60.8925 65.5906 72.9409 64.9309C69.4331 63.7666 66.1541 62.1367 63.1039 59.8858C56.3171 54.8407 50.5217 46.4582 46.1751 31.2454L58.376 27.5974C61.655 39.0846 65.4678 45.682 70.577 49.4852C75.6861 53.2108 81.8628 54.1422 89.1834 54.9184C102.909 56.4707 120.067 57.0916 141.495 67.1817C144.393 68.2684 147.367 69.6655 150.264 71.2178C149.883 70.4416 149.502 69.6655 148.968 68.8117C145.308 62.9904 138.14 56.8588 124.871 51.8913L129.141 39.7832C150.722 47.7 159.262 58.9544 162.694 67.8803C166.659 78.048 164.219 86.0037 164.219 86.0037C161.169 87.0127 158.119 88.4098 154.611 89.4964C147.977 84.9171 141.724 81.4631 135.776 78.7466C113.814 70.4416 92.3099 76.1076 73.2459 77.8928C58.9098 79.2123 45.7938 78.5913 34.4317 71.2954C23.2221 64.1547 13.3851 50.4942 6.21704 24.4927Z" fill="#20461A"/>
<path d="M90.0984 45.2939C87.582 39.5503 86.0569 32.4872 86.7432 23.7942L99.4016 24.7256C98.6391 35.2814 102.299 42.4221 106.417 47.0791C101.079 46.1477 95.9701 46.039 90.0984 45.2939Z" fill="#20461A"/>
<path d="M170.167 43.9744L178.479 34.2724C200.059 53.366 186.638 80.687 186.638 80.687L174.819 79.3675C174.437 73.1271 173.675 61.5313 168.184 54.996C171.768 56.8355 174.819 58.8613 178.174 61.9038C178.174 56.2378 176.42 49.5628 170.167 43.9744Z" fill="#20461A"/>
</g>
</svg>

<svg xmlns="http://www.w3.org/2000/svg" width="250" height="250" fill="none"><mask id="a" width="240" height="234" x="4" y="1" maskUnits="userSpaceOnUse" style="mask-type:alpha"><path fill="#D9D9D9" d="M244 123c0 64.617-38.383 112-103 112-64.617 0-103-30.883-103-95.5C38 111.194-8.729 36.236 8 16 29.46-9.959 88.689 6 125 6c64.617 0 119 52.383 119 117Z"/></mask><g mask="url(#a)"><path fill="#91BA4D" d="M116.94 88.1c-13.344 1.552-20.436-2.019-24.706 10.71 0 0 14.336 21.655 52.54 21.112-2.135 8.848-1.144 15.368-1.144 23.207 0 26.079-20.589 48.821-65.961 48.821-23.03 0-51.015 4.191-72.367 15.911-15.175 8.305-27.048 20.336-32.302 37.023l5.956 8.461 11.4.155v47.889l-13.91 21.966L-19.556 387h13.192l1.144-51.227c6.558-3.881 21.58-13.971 34.391-29.494 17.386-20.879 30.731-51.227 15.022-88.793l11.744-5.045c12.887 30.813 8.388 57.514-2.898 79.013 21.58-.698 40.11-2.095 55.819-4.734l-3.584-43.698 12.659-1.087L129.98 387h13.116l2.212-94.459c10.447-4.502 34.239-21.034 45.372-78.47 1.372-6.986 2.135-12.885 2.516-17.93 1.754-12.806 2.745-27.243 3.051-43.698l-18.683-5.976h57.42l5.567-12.807c-5.414.233-11.896-2.639-11.896-2.639l1.297-6.209H242l-65.199-34.384c-7.244 2.794-14.87 6.442-20.208 10.866-4.27-3.105-19.063-12.807-39.653-13.195Z"/><path fill="#20461A" d="M6.217 24.493 18.494 21c5.948 21.577 13.345 33.375 22.648 39.352 8.388 5.099 19.75 5.239 31.799 4.579-3.508-1.164-6.787-2.794-9.837-5.045-6.787-5.045-12.582-13.428-16.929-28.64l12.201-3.649c3.279 11.488 7.092 18.085 12.201 21.888 5.11 3.726 11.286 4.657 18.606 5.433 13.726 1.553 30.884 2.174 52.312 12.264 2.898 1.086 5.872 2.483 8.769 4.036-.381-.776-.762-1.553-1.296-2.406-3.66-5.822-10.828-11.953-24.097-16.92l4.27-12.109c21.581 7.917 30.121 19.171 33.553 28.097 3.965 10.168 1.525 18.124 1.525 18.124-3.05 1.009-6.1 2.406-9.608 3.492-6.634-4.579-12.887-8.033-18.835-10.75-21.962-8.304-43.466-2.638-62.53-.853-14.336 1.32-27.452.698-38.814-6.598-11.21-7.14-21.047-20.8-28.215-46.802Z"/><path fill="#20461A" d="M90.098 45.294c-2.516-5.744-4.041-12.807-3.355-21.5l12.659.932c-.763 10.555 2.897 17.696 7.015 22.353-5.338-.931-10.447-1.04-16.319-1.785ZM170.167 43.974l8.312-9.702c21.58 19.094 8.159 46.415 8.159 46.415l-11.819-1.32c-.382-6.24-1.144-17.836-6.635-24.371 3.584 1.84 6.635 3.865 9.99 6.908 0-5.666-1.754-12.341-8.007-17.93Z"/></g></svg>
